X:1
T:Robin Hood and the Bishop of Hereford
M:4/4
L:1/8
K:C
 G2| c2 c3/2 d/2 c2 EE| G2 GE C2 G3/2- G/2| c2 egf-ed-c| d4 z2|G-G|\
F-ED-C E2 GG| A2A-c G2 G2| c2 eg fe dc| c6||

